Newaita-dark/apps/64/trello.svg

<svg height="64pt" viewBox="0 0 64 64" width="64pt" xmlns="http://www.w3.org/2000/svg" xmlns:xlink="http://www.w3.org/1999/xlink"><linearGradient id="a" gradientUnits="userSpaceOnUse" x1="31.75304" x2="31.75304" y1="56.067872" y2="58.71396000006"><stop offset="0" stop-opacity=".27451"/><stop offset="1" stop-opacity="0"/></linearGradient><linearGradient id="b"><stop offset="0" stop-opacity=".313726"/><stop offset=".222222" stop-opacity=".27451"/><stop offset="1" stop-opacity="0"/></linearGradient><radialGradient id="c" cx="450.908936" cy="189.579361" gradientTransform="matrix(.00000035 -.156265 -.281277 -.0000002 106.24586 127.190665)" gradientUnits="userSpaceOnUse" r="21.166656" xlink:href="#b"/><radialGradient id="d" cx="450.908936" cy="189.579361" gradientTransform="matrix(-.00000035 .156265 .281277 .0000002 -42.409041 -15.054958)" gradientUnits="userSpaceOnUse" r="21.166656" xlink:href="#b"/><radialGradient id="e" cx="450.908936" cy="189.579361" gradientTransform="matrix(-.00000035 -.156265 .281277 -.0000002 -42.409041 127.190665)" gradientUnits="userSpaceOnUse" r="21.166656" xlink:href="#b"/><radialGradient id="f" cx="450.908936" cy="189.579361" gradientTransform="matrix(.00000035 .156265 -.281277 .0000002 106.245857 -15.054959)" gradientUnits="userSpaceOnUse" r="21.166656" xlink:href="#b"/><linearGradient id="g" gradientUnits="userSpaceOnUse" x1="31.753048" x2="31.753048" y1="5.79220900013" y2="56.067867"><stop offset="0" stop-color="#64b5f6"/><stop offset="1" stop-color="#42a5f5"/></linearGradient><linearGradient id="h"><stop offset="0" stop-color="#e0e0e0"/><stop offset="1" stop-color="#eee"/></linearGradient><linearGradient id="i" gradientUnits="userSpaceOnUse" x1="43.660441" x2="43.660441" xlink:href="#h" y1="28.283951" y2="12.407427"/><linearGradient id="j" gradientUnits="userSpaceOnUse" x1="19.845655" x2="19.845655" xlink:href="#h" y1="49.45264899994" y2="12.407427"/><path d="m10.253906 56.066406h43.328125v2.648438h-43.328125zm0 0" fill="url(#a)"/><path d="m53.582031 56.066406h5.292969v-2.644531h-5.292969zm0 0" fill="url(#c)"/><path d="m10.253906 56.066406h-5.292968v2.648438h5.292968zm0 0" fill="url(#d)"/><path d="m10.253906 56.066406h-5.292968v-2.644531h5.292968zm0 0" fill="url(#e)"/><path d="m53.582031 56.066406h5.292969v2.648438h-5.292969zm0 0" fill="url(#f)"/><path d="m7.277344 5.792969h48.953125c1.09375 0 1.984375.886719 1.984375 1.984375v46.304687c0 1.097657-.890625 1.984375-1.984375 1.984375h-48.953125c-1.097656 0-1.984375-.886718-1.984375-1.984375v-46.304687c0-1.097656.886719-1.984375 1.984375-1.984375zm0 0" fill="url(#g)"/><path d="m7.277344 5.792969c-1.101563 0-1.984375.882812-1.984375 1.984375v.742187c0-1.097656.882812-1.984375 1.984375-1.984375h48.953125c1.097656 0 1.984375.886719 1.984375 1.984375v-.742187c0-1.101563-.886719-1.984375-1.984375-1.984375zm0 0" fill="#fff" fill-opacity=".392157"/><path d="m7.277344 55.984375c-1.101563 0-1.984375-.886719-1.984375-1.984375v-.742188c0 1.097657.882812 1.984376 1.984375 1.984376h48.953125c1.097656 0 1.984375-.886719 1.984375-1.984376v.742188c0 1.097656-.886719 1.984375-1.984375 1.984375zm0 0" fill-opacity=".235294"/><path d="m7.277344 5.605469c-1.199219 0-2.171875.972656-2.171875 2.171875v46.304687c0 1.203125.972656 2.171875 2.171875 2.171875h48.953125c1.199219 0 2.171875-.96875 2.171875-2.171875v-46.304687c0-1.199219-.972656-2.171875-2.171875-2.171875zm0 .375h48.953125c.996093 0 1.796875.796875 1.796875 1.796875v46.304687c0 1-.800782 1.796875-1.796875 1.796875h-48.953125c-1 0-1.796875-.796875-1.796875-1.796875v-46.304687c0-1 .796875-1.796875 1.796875-1.796875zm0 0" fill="#212121"/><path d="m38.367188 12.40625h10.585937c1.460937 0 2.644531 1.1875 2.644531 2.648438v10.582031c0 1.460937-1.183594 2.648437-2.644531 2.648437h-10.585937c-1.460938 0-2.644532-1.1875-2.644532-2.648437v-10.582031c0-1.460938 1.183594-2.648438 2.644532-2.648438zm0 0" fill="url(#i)"/><path d="m14.554688 12.40625h10.582031c1.460937 0 2.648437 1.1875 2.648437 2.648438v31.75c0 1.464843-1.1875 2.648437-2.648437 2.648437h-10.582031c-1.460938 0-2.648438-1.183594-2.648438-2.648437v-31.75c0-1.460938 1.1875-2.648438 2.648438-2.648438zm0 0" fill="url(#j)"/><path d="m38.367188 12.40625c-1.464844 0-2.644532 1.179688-2.644532 2.648438v.992187c0-1.46875 1.179688-2.648437 2.644532-2.648437h10.585937c1.464844 0 2.644531 1.179687 2.644531 2.648437v-.992187c0-1.46875-1.179687-2.648438-2.644531-2.648438zm0 0" fill="#fff" fill-opacity=".784314"/><path d="m14.554688 12.40625c-1.46875 0-2.648438 1.179688-2.648438 2.648438v.992187c0-1.46875 1.179688-2.648437 2.648438-2.648437h10.582031c1.46875 0 2.648437 1.179687 2.648437 2.648437v-.992187c0-1.46875-1.179687-2.648438-2.648437-2.648438zm0 0" fill="#fff" fill-opacity=".784314"/><path d="m38.367188 29.277344c-1.464844 0-2.644532-1.179688-2.644532-2.648438v-.992187c0 1.46875 1.179688 2.648437 2.644532 2.648437h10.585937c1.464844 0 2.644531-1.179687 2.644531-2.648437v.992187c0 1.46875-1.179687 2.648438-2.644531 2.648438zm0 0" fill-opacity=".235294"/><path d="m14.554688 50.445312c-1.46875 0-2.648438-1.179687-2.648438-2.644531v-.996093c0 1.46875 1.179688 2.648437 2.648438 2.648437h10.582031c1.46875 0 2.648437-1.179687 2.648437-2.648437v.996093c0 1.464844-1.179687 2.644531-2.648437 2.644531zm0 0" fill-opacity=".235294"/><g fill="none" stroke="#424242" stroke-linecap="round" stroke-linejoin="round" stroke-width="3" transform="matrix(.125012 0 0 .125012 0 26.877566)"><path d="m306.908192-115.759477h84.679413c11.686384 0 21.15423 9.499093 21.15423 21.185477v84.648166c0 11.686384-9.467846 21.185477-21.15423 21.185477h-84.679413c-11.686384 0-21.15423-9.499093-21.15423-21.185477v-84.648166c0-11.686384 9.467846-21.185477 21.15423-21.185477zm0 0"/><path d="m116.426382-115.759477h84.648166c11.686384 0 21.185477 9.499093 21.185477 21.185477v253.975746c0 11.717631-9.499093 21.185477-21.185477 21.185477h-84.648166c-11.686384 0-21.185477-9.467846-21.185477-21.185477v-253.975746c0-11.686384 9.499093-21.185477 21.185477-21.185477zm0 0"/></g></svg>

<?xml version="1.0" encoding="UTF-8"?>
<svg xmlns="http://www.w3.org/2000/svg" xmlns:xlink="http://www.w3.org/1999/xlink" width="64pt" height="64pt" viewBox="0 0 64 64" version="1.1">
<defs>
<linearGradient id="linear0" gradientUnits="userSpaceOnUse" x1="254" y1="233.5" x2="254" y2="254.666672" gradientTransform="matrix(0.125012,0,0,0.125012,-0.00000763012,26.87757)">
<stop offset="0" style="stop-color:rgb(0%,0%,0%);stop-opacity:0.27451;"/>
<stop offset="1" style="stop-color:rgb(0%,0%,0%);stop-opacity:0;"/>
</linearGradient>
<radialGradient id="radial0" gradientUnits="userSpaceOnUse" cx="450.908936" cy="189.579361" fx="450.908936" fy="189.579361" r="21.166656" gradientTransform="matrix(0.000000348341,-0.156265,-0.281277,-0.000000203077,106.24586,127.190665)">
<stop offset="0" style="stop-color:rgb(0%,0%,0%);stop-opacity:0.313726;"/>
<stop offset="0.222222" style="stop-color:rgb(0%,0%,0%);stop-opacity:0.27451;"/>
<stop offset="1" style="stop-color:rgb(0%,0%,0%);stop-opacity:0;"/>
</radialGradient>
<radialGradient id="radial1" gradientUnits="userSpaceOnUse" cx="450.908936" cy="189.579361" fx="450.908936" fy="189.579361" r="21.166656" gradientTransform="matrix(-0.000000348341,0.156265,0.281277,0.000000203077,-42.409041,-15.054958)">
<stop offset="0" style="stop-color:rgb(0%,0%,0%);stop-opacity:0.313726;"/>
<stop offset="0.222222" style="stop-color:rgb(0%,0%,0%);stop-opacity:0.27451;"/>
<stop offset="1" style="stop-color:rgb(0%,0%,0%);stop-opacity:0;"/>
</radialGradient>
<radialGradient id="radial2" gradientUnits="userSpaceOnUse" cx="450.908936" cy="189.579361" fx="450.908936" fy="189.579361" r="21.166656" gradientTransform="matrix(-0.000000348341,-0.156265,0.281277,-0.000000203077,-42.409041,127.190665)">
<stop offset="0" style="stop-color:rgb(0%,0%,0%);stop-opacity:0.313726;"/>
<stop offset="0.222222" style="stop-color:rgb(0%,0%,0%);stop-opacity:0.27451;"/>
<stop offset="1" style="stop-color:rgb(0%,0%,0%);stop-opacity:0;"/>
</radialGradient>
<radialGradient id="radial3" gradientUnits="userSpaceOnUse" cx="450.908936" cy="189.579361" fx="450.908936" fy="189.579361" r="21.166656" gradientTransform="matrix(0.000000348341,0.156265,-0.281277,0.000000203077,106.245857,-15.054959)">
<stop offset="0" style="stop-color:rgb(0%,0%,0%);stop-opacity:0.313726;"/>
<stop offset="0.222222" style="stop-color:rgb(0%,0%,0%);stop-opacity:0.27451;"/>
<stop offset="1" style="stop-color:rgb(0%,0%,0%);stop-opacity:0;"/>
</radialGradient>
<linearGradient id="linear1" gradientUnits="userSpaceOnUse" x1="254" y1="-168.666656" x2="254" y2="233.5" gradientTransform="matrix(0.125012,0,0,0.125012,0,26.877565)">
<stop offset="0" style="stop-color:rgb(39.215687%,70.980394%,96.470588%);stop-opacity:1;"/>
<stop offset="1" style="stop-color:rgb(25.882354%,64.705884%,96.078432%);stop-opacity:1;"/>
</linearGradient>
<linearGradient id="linear2" gradientUnits="userSpaceOnUse" x1="349.25" y1="11.25" x2="349.25" y2="-115.75" gradientTransform="matrix(0.125012,0,0,0.125012,0,26.877566)">
<stop offset="0" style="stop-color:rgb(87.843138%,87.843138%,87.843138%);stop-opacity:1;"/>
<stop offset="1" style="stop-color:rgb(93.333334%,93.333334%,93.333334%);stop-opacity:1;"/>
</linearGradient>
<linearGradient id="linear3" gradientUnits="userSpaceOnUse" x1="158.75" y1="180.583328" x2="158.75" y2="-115.75" gradientTransform="matrix(0.125012,0,0,0.125012,0,26.877566)">
<stop offset="0" style="stop-color:rgb(87.843138%,87.843138%,87.843138%);stop-opacity:1;"/>
<stop offset="1" style="stop-color:rgb(93.333334%,93.333334%,93.333334%);stop-opacity:1;"/>
</linearGradient>
</defs>
<g id="surface1">
<path style=" stroke:none;fill-rule:nonzero;fill:url(#linear0);" d="M 10.253906 56.066406 L 53.582031 56.066406 L 53.582031 58.714844 L 10.253906 58.714844 Z M 10.253906 56.066406 "/>
<path style=" stroke:none;fill-rule:nonzero;fill:url(#radial0);" d="M 53.582031 56.066406 L 58.875 56.066406 L 58.875 53.421875 L 53.582031 53.421875 Z M 53.582031 56.066406 "/>
<path style=" stroke:none;fill-rule:nonzero;fill:url(#radial1);" d="M 10.253906 56.066406 L 4.960938 56.066406 L 4.960938 58.714844 L 10.253906 58.714844 Z M 10.253906 56.066406 "/>
<path style=" stroke:none;fill-rule:nonzero;fill:url(#radial2);" d="M 10.253906 56.066406 L 4.960938 56.066406 L 4.960938 53.421875 L 10.253906 53.421875 Z M 10.253906 56.066406 "/>
<path style=" stroke:none;fill-rule:nonzero;fill:url(#radial3);" d="M 53.582031 56.066406 L 58.875 56.066406 L 58.875 58.714844 L 53.582031 58.714844 Z M 53.582031 56.066406 "/>
<path style=" stroke:none;fill-rule:nonzero;fill:url(#linear1);" d="M 7.277344 5.792969 L 56.230469 5.792969 C 57.324219 5.792969 58.214844 6.679688 58.214844 7.777344 L 58.214844 54.082031 C 58.214844 55.179688 57.324219 56.066406 56.230469 56.066406 L 7.277344 56.066406 C 6.179688 56.066406 5.292969 55.179688 5.292969 54.082031 L 5.292969 7.777344 C 5.292969 6.679688 6.179688 5.792969 7.277344 5.792969 Z M 7.277344 5.792969 "/>
<path style=" stroke:none;fill-rule:nonzero;fill:rgb(100%,100%,100%);fill-opacity:0.392157;" d="M 7.277344 5.792969 C 6.175781 5.792969 5.292969 6.675781 5.292969 7.777344 L 5.292969 8.519531 C 5.292969 7.421875 6.175781 6.535156 7.277344 6.535156 L 56.230469 6.535156 C 57.328125 6.535156 58.214844 7.421875 58.214844 8.519531 L 58.214844 7.777344 C 58.214844 6.675781 57.328125 5.792969 56.230469 5.792969 Z M 7.277344 5.792969 "/>
<path style=" stroke:none;fill-rule:nonzero;fill:rgb(0%,0%,0%);fill-opacity:0.235294;" d="M 7.277344 55.984375 C 6.175781 55.984375 5.292969 55.097656 5.292969 54 L 5.292969 53.257812 C 5.292969 54.355469 6.175781 55.242188 7.277344 55.242188 L 56.230469 55.242188 C 57.328125 55.242188 58.214844 54.355469 58.214844 53.257812 L 58.214844 54 C 58.214844 55.097656 57.328125 55.984375 56.230469 55.984375 Z M 7.277344 55.984375 "/>
<path style=" stroke:none;fill-rule:nonzero;fill:rgb(12.941177%,12.941177%,12.941177%);fill-opacity:1;" d="M 7.277344 5.605469 C 6.078125 5.605469 5.105469 6.578125 5.105469 7.777344 L 5.105469 54.082031 C 5.105469 55.285156 6.078125 56.253906 7.277344 56.253906 L 56.230469 56.253906 C 57.429688 56.253906 58.402344 55.285156 58.402344 54.082031 L 58.402344 7.777344 C 58.402344 6.578125 57.429688 5.605469 56.230469 5.605469 Z M 7.277344 5.980469 L 56.230469 5.980469 C 57.226562 5.980469 58.027344 6.777344 58.027344 7.777344 L 58.027344 54.082031 C 58.027344 55.082031 57.226562 55.878906 56.230469 55.878906 L 7.277344 55.878906 C 6.277344 55.878906 5.480469 55.082031 5.480469 54.082031 L 5.480469 7.777344 C 5.480469 6.777344 6.277344 5.980469 7.277344 5.980469 Z M 7.277344 5.980469 "/>
<path style=" stroke:none;fill-rule:nonzero;fill:url(#linear2);" d="M 38.367188 12.40625 L 48.953125 12.40625 C 50.414062 12.40625 51.597656 13.59375 51.597656 15.054688 L 51.597656 25.636719 C 51.597656 27.097656 50.414062 28.285156 48.953125 28.285156 L 38.367188 28.285156 C 36.90625 28.285156 35.722656 27.097656 35.722656 25.636719 L 35.722656 15.054688 C 35.722656 13.59375 36.90625 12.40625 38.367188 12.40625 Z M 38.367188 12.40625 "/>
<path style=" stroke:none;fill-rule:nonzero;fill:url(#linear3);" d="M 14.554688 12.40625 L 25.136719 12.40625 C 26.597656 12.40625 27.785156 13.59375 27.785156 15.054688 L 27.785156 46.804688 C 27.785156 48.269531 26.597656 49.453125 25.136719 49.453125 L 14.554688 49.453125 C 13.09375 49.453125 11.90625 48.269531 11.90625 46.804688 L 11.90625 15.054688 C 11.90625 13.59375 13.09375 12.40625 14.554688 12.40625 Z M 14.554688 12.40625 "/>
<path style=" stroke:none;fill-rule:nonzero;fill:rgb(100%,100%,100%);fill-opacity:0.784314;" d="M 38.367188 12.40625 C 36.902344 12.40625 35.722656 13.585938 35.722656 15.054688 L 35.722656 16.046875 C 35.722656 14.578125 36.902344 13.398438 38.367188 13.398438 L 48.953125 13.398438 C 50.417969 13.398438 51.597656 14.578125 51.597656 16.046875 L 51.597656 15.054688 C 51.597656 13.585938 50.417969 12.40625 48.953125 12.40625 Z M 38.367188 12.40625 "/>
<path style=" stroke:none;fill-rule:nonzero;fill:rgb(100%,100%,100%);fill-opacity:0.784314;" d="M 14.554688 12.40625 C 13.085938 12.40625 11.90625 13.585938 11.90625 15.054688 L 11.90625 16.046875 C 11.90625 14.578125 13.085938 13.398438 14.554688 13.398438 L 25.136719 13.398438 C 26.605469 13.398438 27.785156 14.578125 27.785156 16.046875 L 27.785156 15.054688 C 27.785156 13.585938 26.605469 12.40625 25.136719 12.40625 Z M 14.554688 12.40625 "/>
<path style=" stroke:none;fill-rule:nonzero;fill:rgb(0%,0%,0%);fill-opacity:0.235294;" d="M 38.367188 29.277344 C 36.902344 29.277344 35.722656 28.097656 35.722656 26.628906 L 35.722656 25.636719 C 35.722656 27.105469 36.902344 28.285156 38.367188 28.285156 L 48.953125 28.285156 C 50.417969 28.285156 51.597656 27.105469 51.597656 25.636719 L 51.597656 26.628906 C 51.597656 28.097656 50.417969 29.277344 48.953125 29.277344 Z M 38.367188 29.277344 "/>
<path style=" stroke:none;fill-rule:nonzero;fill:rgb(0%,0%,0%);fill-opacity:0.235294;" d="M 14.554688 50.445312 C 13.085938 50.445312 11.90625 49.265625 11.90625 47.800781 L 11.90625 46.804688 C 11.90625 48.273438 13.085938 49.453125 14.554688 49.453125 L 25.136719 49.453125 C 26.605469 49.453125 27.785156 48.273438 27.785156 46.804688 L 27.785156 47.800781 C 27.785156 49.265625 26.605469 50.445312 25.136719 50.445312 Z M 14.554688 50.445312 "/>
<path style="fill:none;stroke-width:3;stroke-linecap:round;stroke-linejoin:round;stroke:rgb(25.882354%,25.882354%,25.882354%);stroke-opacity:1;stroke-miterlimit:4;" d="M 306.908192 -115.759477 L 391.587605 -115.759477 C 403.273989 -115.759477 412.741835 -106.260384 412.741835 -94.574 L 412.741835 -9.925834 C 412.741835 1.76055 403.273989 11.259643 391.587605 11.259643 L 306.908192 11.259643 C 295.221808 11.259643 285.753962 1.76055 285.753962 -9.925834 L 285.753962 -94.574 C 285.753962 -106.260384 295.221808 -115.759477 306.908192 -115.759477 Z M 306.908192 -115.759477 " transform="matrix(0.125012,0,0,0.125012,0,26.877566)"/>
<path style="fill:none;stroke-width:3;stroke-linecap:round;stroke-linejoin:round;stroke:rgb(25.882354%,25.882354%,25.882354%);stroke-opacity:1;stroke-miterlimit:4;" d="M 116.426382 -115.759477 L 201.074548 -115.759477 C 212.760932 -115.759477 222.260025 -106.260384 222.260025 -94.574 L 222.260025 159.401746 C 222.260025 171.119377 212.760932 180.587223 201.074548 180.587223 L 116.426382 180.587223 C 104.739998 180.587223 95.240905 171.119377 95.240905 159.401746 L 95.240905 -94.574 C 95.240905 -106.260384 104.739998 -115.759477 116.426382 -115.759477 Z M 116.426382 -115.759477 " transform="matrix(0.125012,0,0,0.125012,0,26.877566)"/>
</g>
</svg>
